X: 20763
T: There was a Maid and she went to the Mill
%R: march
B: James Oswald "The Caledonian Pocket Companion" v.2 p.76 #2 (and top 3 staffs of p.77)
Z: 2019 John Chambers <jc:trillian.mit.edu>
M: C
L: 1/8
K: D
"_Brisk"A |\
d2f2 d2ff | d2ff e3A | d3e Tf3e | defg a3 :: a |\
a2A2 A2(d=c) | B2G2 B3B | A2(FG) A2(FG) | A2(Bc) d3 :|
|: A |\
dfTed egTfe | faTgf egTfe | d3e Tf3e | defg a3 :: a |\
fd A4 (d=c) | (BG) B4 (dB) | A2(FG) A2(FG) | A2(Bc) d3 :|
|: A |\
d2AA e2AA | f2AA e2AA | dAd2 eAe2 | f2ed a3 :: a |\
fdA=c B2ba | geBd {d}Hc2 zB | A2FG A2FG | A2(Bc) d3 :|
